!! "The Wine-Puppet", Item 17 from Laurence Picken et al
!! "Music From the Tang Court" Vol. 4, Cambridge University Press
!! (Cambridge) 1987; p. 90
!! NOTE: This file contains an amalgamation of four coordinated ms sources.
!! SGYR	JCYR	SSSTF	KF/HSFRK (manuscripts)
!! Lute	Zither	Mouth	Mouth
!!		Organ	Organ
**kern	**kern	**kern	**kern
*M2/2	*M2/2	*M2/2	*M2/2
=1	=1	=1	=1
4D	4d 4dd	{4dd	4dd
4A	4a	4a}	4a
{16F#	4D 4f#	{4ff#	4ff#
16E	.	.	.
8F#}	.	.	.
8A	4a	4a}	4a
8A	.	.	.
=2	=2	=2	=2
4B	4B 4b	4b	4b
{16c#	{8cc#	8ccc	8dd
16B}	.	.	.
{16B	8b}	8b	8b
4A	4A 4a	2a	2a
4A	4a	.	.
=3	=3	=3	=3
{16F#	4D 4f#	4ff#	8ee
16E	.	.	.
8F#}	.	.	8ff#
8A	8a	{8aa	8a
{32F#	8f#	[8ff#	8ff#
32E	.	.	.
16F#}	.	.	.
{8F#	4D 4e	8ff#]	8ff#
8E}	.	8ee	8ee
8D	4dd	4dd	4dd
8d	.	.	.
=4	=4	=4	=4
{8c#	4B 4b	4b	4b
8B}	.	.	.
8D	4dd	4dd	4dd
8d	.	.	.
2d	2d 2dd	4..dd	2dd
.	.	32b	.
.	.	32a	.
=5	=5	=5	=5
4D	4d 4dd	{4dd	4dd
4A	4a	4a}	4a
{16F#	4D 4f#	{4ff#	4ff#
16E	.	.	.
8F#}	.	.	.
8A	4a	4a}	4a
8A	.	.	.
=6	=6	=6	=6
4B	4B 4b	4b	4b
{16c#	{8cc#	8ccc	8dd
16B}	.	.	.
{16B	8b}	8b	8b
4A	4A 4a	2a	2a
4A	4a	.	.
=7	=7	=7	=7
{16F#	4D 4f#	4ff#	8ee
16E	.	.	.
8F#}	.	.	8ff#
8A	8a	{8aa	8a
{32F#	8f#	[8ff#	8ff#
32E	.	.	.
16F#}	.	.	.
{8F#	4D 4e	8ff#]	8ff#
8E}	.	8ee	8ee
8D	4dd	4dd	4dd
8d	.	.	.
=8	=8	=8	=8
{8c#	4B 4b	4b	4b
8B}	.	.	.
8D	4dd	4dd	4dd
8d	.	.	.
2d	2d 2dd	4..dd	2dd
.	.	32b	.
.	.	32a	.
=9	=9	=9	=9
2F#	2f# 2ff#	2ff#	2ff#
{8G#	4f# 4ff#	2ff#	2ff#
8F#}	.	.	.
4F#	4ff#	.	.
=10	=10	=10	=10
4E	4e 4ee	{4ee	4ee
{16G#	{8ff#	8ff#}	8ff#
16F#}	.	.	.
{16F#	8ee}	8ee	8ee
16E}	.	.	.
4F#	4f# 4ff#	2ff#	2ff#
4f#	4ff#	.	.
=11	=11	=11	=11
{8E	4f# 4ff#	{8ee	8ee
8F#}	.	8ff#}	8ff#}
8A	8aa	{8aa	8a
{32F#	8ff#	[8ff#	8ff#
32E	.	.	.
16F#}	.	.	.
{8F#	4e 4ee	8ff#]	8ff#
8E}	.	8ee}	8ee
8D	4dd	4dd	4dd
8d	.	.	.
=12	=12	=12	=12
{8c#	4B 4b	4b	4b
8B}	.	.	.
{16B	4ff#	32a	4ff#
.	.	[32ff#	.
16A}	.	8.ff#]	.
8F#	.	.	.
{8G#	2F# 2ff#	2ff#	2ff#
[8F#	.	.	.
4F#}]	.	.	.
=13	=13	=13	=13
{16F#	4f# 4ff#	{8ee	4ff#
16E	.	.	.
8F#}	.	8ff#}	.
8A	8aa	{8aa	8aa
{32F#	8ff#	8ff#}	8ff#
32E	.	.	.
16F#}	.	.	.
{8F#	4e 4ee	8ff#	8ff#
8E}	.	8ee	8ee
8D	4dd	4dd	4dd
8d	.	.	.
=14	=14	=14	=14
{8c#	4B 4b	4b	4b
8B}	.	.	.
8D	4dd	4dd	4dd
2d	2d 2dd	2dd	2dd
====	====	====	====
*-	*-	*-	*-
